svgs/duotone/toilet-portable.svg

<svg xmlns="http://www.w3.org/2000/svg" viewBox="0 0 320 512"><!--! Font Awesome Pro 6.4.2 by @fontawesome - https://fontawesome.com License - https://fontawesome.com/license (Commercial License) Copyright 2023 Fonticons, Inc. --><path class="fa-primary" style="fill:var(--fa-primary-color,inherit);opacity:var(--fa-primary-opacity,1);" d="M32 0C14.3 0 0 14.3 0 32V64H320V32c0-17.7-14.3-32-32-32H32zM256 240c0-8.8-7.2-16-16-16s-16 7.2-16 16v64c0 8.8 7.2 16 16 16s16-7.2 16-16V240z"/><path class="fa-secondary" style="fill:var(--fa-secondary-color,inherit);opacity:var(--fa-secondary-opacity,.4);" d="M0 64H24 296h24V88 488c0 13.3-10.7 24-24 24s-24-10.7-24-24v-8H48v8c0 13.3-10.7 24-24 24s-24-10.7-24-24V88 64zM256 240c0-8.8-7.2-16-16-16s-16 7.2-16 16v64c0 8.8 7.2 16 16 16s16-7.2 16-16V240z"/></svg>

<svg xmlns="http://www.w3.org/2000/svg" viewBox="0 0 320 512"><!--! Font Awesome Pro 6.1.1 by @fontawesome - https://fontawesome.com License - https://fontawesome.com/license (Commercial License) Copyright 2022 Fonticons, Inc. --><defs><style>.fa-secondary{opacity:.4}</style></defs><path class="fa-primary" d="M288 0C305.7 0 320 14.33 320 32V64H0V32C0 14.33 14.33 0 32 0H288zM256 304C256 312.8 248.8 320 240 320C231.2 320 224 312.8 224 304V240C224 231.2 231.2 224 240 224C248.8 224 256 231.2 256 240V304z"/><path class="fa-secondary" d="M0 64H320V488C320 501.3 309.3 512 296 512C282.7 512 272 501.3 272 488V480H48V488C48 501.3 37.25 512 24 512C10.75 512 0 501.3 0 488V64zM256 240C256 231.2 248.8 224 240 224C231.2 224 224 231.2 224 240V304C224 312.8 231.2 320 240 320C248.8 320 256 312.8 256 304V240z"/></svg>
